public/assets/img/icon/wcu-icon_2-2.svg

<svg width="34" height="34" viewBox="0 0 34 34" fill="none" xmlns="http://www.w3.org/2000/svg">
<path d="M29.3255 13.6994C29.4779 13.3814 29.5282 13.024 29.4694 12.6763C29.4107 12.3286 29.2458 12.0076 28.9974 11.7575C28.6718 11.4465 28.239 11.2731 27.789 11.2731C27.3391 11.2731 26.9064 11.4465 26.5807 11.7575L26.1785 12.1607L25.6088 11.5904L26.5203 10.6779C26.7231 10.4832 26.9692 10.3396 27.2383 10.2589C27.5075 10.1782 27.7919 10.1626 28.0682 10.2136C28.862 10.3299 29.6719 10.2597 30.4338 10.0084C31.1958 9.75719 31.8889 9.33188 32.4583 8.76614C33.1823 8.04449 33.6738 7.12219 33.8693 6.11823C34.0648 5.11428 33.9553 4.07471 33.5549 3.13365C33.5186 3.04759 33.4617 2.97179 33.3892 2.9129C33.3168 2.85402 33.231 2.81385 33.1394 2.79594C33.0478 2.77803 32.9532 2.78292 32.8639 2.81018C32.7747 2.83744 32.6935 2.88624 32.6275 2.95229L29.8519 5.72861L28.5097 5.45999L28.2402 4.11517L31.0135 1.33828C31.0799 1.27221 31.1289 1.1908 31.1564 1.10124C31.1838 1.01168 31.1888 0.916727 31.1709 0.824775C31.153 0.732823 31.1128 0.646704 31.0537 0.574028C30.9947 0.501352 30.9186 0.444358 30.8323 0.408084C29.9925 0.0511898 29.0728 -0.0749048 28.1681 0.0428116C27.2633 0.160528 26.4063 0.517791 25.6856 1.07774C24.9648 1.63768 24.4063 2.38003 24.0677 3.22817C23.7292 4.07631 23.6228 4.99953 23.7596 5.90256C23.8096 6.17894 23.7936 6.46323 23.7129 6.73224C23.6322 7.00124 23.4891 7.24733 23.2953 7.45041L22.3838 8.36292L18.5885 4.56287L17.8217 3.03156C17.7705 2.92881 17.6895 2.84393 17.5893 2.78803L13.9666 0.776512C13.8584 0.716284 13.7335 0.693001 13.6108 0.710187C13.4882 0.727372 13.3745 0.784091 13.2869 0.871755L12.4837 1.67591C12.3962 1.76352 12.3397 1.87724 12.3225 1.99989C12.3053 2.12253 12.3285 2.24744 12.3885 2.35573L14.3996 5.98297C14.4552 6.08341 14.5397 6.16471 14.6422 6.21623L16.1724 6.98446L19.9672 10.7839L19.0557 11.6965C18.8529 11.8911 18.6068 12.0347 18.3377 12.1154C18.0685 12.1962 17.7841 12.2117 17.5078 12.1607C16.6062 12.0252 15.6848 12.1326 14.8384 12.472C13.9921 12.8113 13.2513 13.3703 12.6924 14.0914C12.1335 14.8126 11.7766 15.6697 11.6586 16.5748C11.5405 17.4798 11.6654 18.4 12.0205 19.2407C12.0569 19.3267 12.1137 19.4025 12.1862 19.4614C12.2587 19.5203 12.3445 19.5605 12.4361 19.5784C12.5276 19.5963 12.6222 19.5914 12.7115 19.5641C12.8008 19.5369 12.882 19.4881 12.948 19.422L15.7224 16.6457L17.0646 16.9143L17.3329 18.2586L14.5596 21.0355C14.4937 21.1015 14.4449 21.1828 14.4177 21.2722C14.3905 21.3616 14.3856 21.4563 14.4035 21.548C14.4214 21.6396 14.4615 21.7255 14.5203 21.7981C14.5791 21.8706 14.6548 21.9276 14.7408 21.9639C15.5806 22.3208 16.5003 22.4469 17.4051 22.3292C18.3098 22.2115 19.1668 21.8542 19.8876 21.2943C20.6084 20.7343 21.1669 19.992 21.5054 19.1439C21.844 18.2957 21.9503 17.3725 21.8135 16.4695C21.7635 16.1931 21.7795 15.9088 21.8602 15.6398C21.9409 15.3708 22.084 15.1247 22.2778 14.9216L23.1894 14.0091L23.759 14.5794L23.3574 14.9838C23.0703 15.2679 22.8932 15.6448 22.8577 16.0474C22.8222 16.45 22.9306 16.8522 23.1636 17.1822C23.3966 17.5123 23.7391 17.7488 24.13 17.8498C24.521 17.9507 24.935 17.9094 25.2984 17.7333L28.663 21.1022C28.9275 21.367 29.2415 21.5771 29.5871 21.7204C29.9327 21.8638 30.3031 21.9376 30.6772 21.9376C31.0513 21.9376 31.4217 21.8639 31.7673 21.7206C32.113 21.5773 32.427 21.3673 32.6915 21.1025C32.9561 20.8377 33.1659 20.5233 33.3091 20.1773C33.4523 19.8313 33.526 19.4605 33.526 19.086C33.5261 18.7115 33.4524 18.3407 33.3093 17.9947C33.1661 17.6487 32.9563 17.3343 32.6918 17.0694L29.3255 13.6994ZM16.9125 6.1113C16.8696 6.06803 16.8199 6.03202 16.7655 6.00465L15.3105 5.27406L13.5929 2.17608L13.7866 1.98217L16.8806 3.70169L17.6103 5.15772C17.6375 5.2125 17.6735 5.26241 17.7169 5.30543L21.5771 9.1705L20.7704 9.9775L16.9125 6.1113ZM21.4774 14.1146C21.1566 14.4433 20.9181 14.8434 20.7816 15.2822C20.645 15.721 20.6143 16.1859 20.6918 16.6389C20.7864 17.2665 20.7303 17.9077 20.5281 18.5092C20.3259 19.1108 19.9834 19.6555 19.529 20.0982C19.0746 20.5409 18.5214 20.8688 17.9152 21.0548C17.309 21.2408 16.6673 21.2795 16.0431 21.1678L18.3595 18.8494C18.4255 18.7832 18.4742 18.7017 18.5013 18.6122C18.5284 18.5227 18.5331 18.4279 18.515 18.3361L18.1094 16.32C18.0876 16.209 18.0332 16.107 17.9533 16.0269C17.8733 15.9469 17.7714 15.8925 17.6605 15.8706L15.6466 15.4674C15.555 15.4493 15.4602 15.454 15.3708 15.4812C15.2814 15.5083 15.2 15.5571 15.1339 15.6231L12.8181 17.9415C12.7067 17.3168 12.7454 16.6746 12.9312 16.0679C13.1169 15.4613 13.4443 14.9076 13.8863 14.4528C14.3282 13.998 14.872 13.6551 15.4727 13.4525C16.0733 13.2499 16.7135 13.1934 17.3403 13.2876C17.7929 13.3625 18.2567 13.3304 18.6946 13.1939C19.1326 13.0575 19.5327 12.8204 19.8629 12.5017L24.1009 8.2597C24.4217 7.931 24.6602 7.53087 24.7967 7.0921C24.9333 6.65333 24.964 6.18842 24.8865 5.73545C24.7918 5.10782 24.848 4.46666 25.0502 3.86506C25.2524 3.26347 25.5949 2.71877 26.0493 2.27609C26.5036 1.83341 27.0569 1.50549 27.6631 1.31949C28.2693 1.13349 28.911 1.09477 29.5352 1.20653L27.2188 3.52489C27.1528 3.59112 27.1041 3.67258 27.077 3.76209C27.0499 3.8516 27.0452 3.94641 27.0633 4.03818L27.466 6.05426C27.4881 6.16459 27.5423 6.26591 27.6218 6.34547C27.7013 6.42503 27.8025 6.47929 27.9127 6.5014L29.9265 6.90461C30.0182 6.92274 30.1129 6.91802 30.2023 6.89087C30.2917 6.86372 30.3731 6.81497 30.4393 6.74891L32.7573 4.43284C32.8688 5.05748 32.83 5.6997 32.6443 6.30636C32.4585 6.91302 32.1311 7.46667 31.6891 7.92149C31.2472 8.37631 30.7034 8.71922 30.1027 8.92184C29.5021 9.12446 28.8619 9.18095 28.2351 9.08666C27.7823 9.01207 27.3184 9.04455 26.8804 9.1815C26.4424 9.31846 26.0424 9.5561 25.7125 9.87542L21.4774 14.1146ZM24.8056 12.3968L25.3753 12.9671L24.5652 13.7741L23.9955 13.2038L24.8056 12.3968ZM24.1658 16.5966C24.059 16.4897 23.999 16.3447 23.999 16.1934C23.999 16.0422 24.059 15.8972 24.1658 15.7902L27.3886 12.5639C27.4415 12.511 27.5043 12.469 27.5735 12.4403C27.6426 12.4117 27.7167 12.3969 27.7915 12.397C27.8664 12.397 27.9404 12.4118 28.0096 12.4405C28.0787 12.4692 28.1415 12.5112 28.1944 12.5642C28.2473 12.6172 28.2892 12.6801 28.3178 12.7493C28.3465 12.8185 28.3612 12.8927 28.3611 12.9676C28.3611 13.0425 28.3463 13.1167 28.3177 13.1859C28.289 13.2551 28.247 13.318 28.1941 13.3709L24.9708 16.5972C24.8621 16.7016 24.7174 16.7599 24.5668 16.7598C24.4162 16.7597 24.2714 16.7012 24.163 16.5966H24.1658ZM31.8891 20.2958C31.5682 20.616 31.1336 20.7958 30.6805 20.7958C30.2274 20.7958 29.7928 20.616 29.4719 20.2958L26.1797 16.9999L28.5969 14.5806L31.8891 17.8759C32.0479 18.0348 32.1738 18.2234 32.2597 18.431C32.3456 18.6386 32.3898 18.8611 32.3898 19.0858C32.3898 19.3105 32.3456 19.533 32.2597 19.7406C32.1738 19.9482 32.0479 20.1369 31.8891 20.2958Z" fill="#F41E1E"/>
<path d="M33.6962 24.2475C33.5471 23.988 33.3483 23.7605 33.1113 23.5779C32.8743 23.3953 32.6037 23.2613 32.3149 23.1835C32.0262 23.1057 31.7249 23.0856 31.4284 23.1245C31.1319 23.1633 30.8459 23.2602 30.5868 23.4097L25.0317 26.62C24.7291 26.1647 24.2719 25.8346 23.7448 25.691L15.245 23.4097C14.5907 23.2341 13.9025 23.2282 13.2454 23.3926L10.2545 24.1443V23.1639C10.2545 23.0126 10.1945 22.8676 10.0876 22.7606C9.98078 22.6537 9.83587 22.5936 9.68478 22.5936H5.12724C4.97614 22.5936 4.83124 22.6537 4.7244 22.7606C4.61756 22.8676 4.55754 23.0126 4.55754 23.1639V23.7342H0.569693C0.418601 23.7342 0.273697 23.7943 0.166859 23.9013C0.060021 24.0082 0 24.1533 0 24.3045V32.289C0 32.4403 0.060021 32.5854 0.166859 32.6923C0.273697 32.7993 0.418601 32.8594 0.569693 32.8594H4.55754V33.4297C4.55754 33.5809 4.61756 33.726 4.7244 33.833C4.83124 33.9399 4.97614 34 5.12724 34H9.68478C9.83587 34 9.98078 33.9399 10.0876 33.833C10.1945 33.726 10.2545 33.5809 10.2545 33.4297V32.6415L10.9871 33.0082C11.5409 33.2848 12.1513 33.4291 12.7702 33.4297H21.3025C22.0025 33.4294 22.6901 33.2449 23.2965 32.8947L32.8673 27.3626C33.3882 27.058 33.7677 26.5596 33.923 25.9761C34.0783 25.3925 33.9967 24.7711 33.6962 24.2475ZM1.13939 31.7187V24.8749H4.55754V31.7187H1.13939ZM9.11509 32.8594H5.69693V23.7342H9.11509V32.8594ZM32.2959 26.3771L22.725 31.9092C22.292 32.1595 21.8008 32.2913 21.3008 32.2913H12.7702C12.3283 32.2906 11.8925 32.1876 11.497 31.9902L10.2545 31.3663V25.3209L13.5211 24.503C13.9907 24.386 14.4823 24.3902 14.9499 24.515L23.4497 26.7963C23.5968 26.8327 23.7351 26.8981 23.8566 26.9886C23.9781 27.0792 24.0804 27.1931 24.1574 27.3237C24.2344 27.4543 24.2846 27.5989 24.3051 27.7492C24.3256 27.8994 24.316 28.0523 24.2768 28.1988C24.2376 28.3452 24.1696 28.4824 24.0768 28.6023C23.984 28.7222 23.8682 28.8223 23.7363 28.8969C23.6044 28.9714 23.459 29.0189 23.3085 29.0365C23.1581 29.0541 23.0056 29.0415 22.8601 28.9994L16.0653 27.1755C15.9196 27.1372 15.7647 27.1583 15.6345 27.234C15.5042 27.3097 15.4093 27.4341 15.3703 27.5797C15.3314 27.7254 15.3516 27.8806 15.4267 28.0113C15.5018 28.1421 15.6255 28.2377 15.7708 28.2774L22.5644 30.1024C22.758 30.1544 22.9576 30.1809 23.158 30.1811C23.4726 30.1835 23.7843 30.1199 24.0728 29.9943C24.3613 29.8687 24.6204 29.6839 24.8332 29.4519C25.046 29.2199 25.2079 28.9459 25.3085 28.6474C25.409 28.3489 25.4459 28.0327 25.4169 27.7191L31.1548 24.4026C31.4173 24.2577 31.7258 24.2202 32.0153 24.298C32.3049 24.3759 32.5531 24.563 32.7078 24.8201C32.8577 25.0816 32.8986 25.3918 32.8214 25.6833C32.7443 25.9748 32.5555 26.2241 32.2959 26.3771Z" fill="#F41E1E"/>
</svg>

<?xml version="1.0" encoding="UTF-8"?>
<svg id="Camada_1" data-name="Camada 1" xmlns="http://www.w3.org/2000/svg" viewBox="0 0 34 34">
  <defs>
    <style>
      .cls-1 {
        fill: #f1c40f;
      }
    </style>
  </defs>
  <path class="cls-1" d="M29.33,13.7c.15-.32,.2-.68,.14-1.02-.06-.35-.22-.67-.47-.92-.33-.31-.76-.48-1.21-.48s-.88,.17-1.21,.48l-.4,.4-.57-.57,.91-.91c.2-.19,.45-.34,.72-.42,.27-.08,.55-.1,.83-.05,.79,.12,1.6,.05,2.37-.21,.76-.25,1.46-.68,2.02-1.24,.72-.72,1.22-1.64,1.41-2.65,.2-1,.09-2.04-.31-2.98-.04-.09-.09-.16-.17-.22-.07-.06-.16-.1-.25-.12-.09-.02-.19-.01-.28,.01-.09,.03-.17,.08-.24,.14l-2.78,2.78-1.34-.27-.27-1.34,2.77-2.78c.07-.07,.12-.15,.14-.24,.03-.09,.03-.18,.01-.28-.02-.09-.06-.18-.12-.25-.06-.07-.14-.13-.22-.17-.84-.36-1.76-.48-2.66-.37-.9,.12-1.76,.47-2.48,1.03-.72,.56-1.28,1.3-1.62,2.15-.34,.85-.44,1.77-.31,2.67,.05,.28,.03,.56-.05,.83-.08,.27-.22,.52-.42,.72l-.91,.91-3.8-3.8-.77-1.53c-.05-.1-.13-.19-.23-.24L13.97,.78c-.11-.06-.23-.08-.36-.07-.12,.02-.24,.07-.32,.16l-.8,.8c-.09,.09-.14,.2-.16,.32-.02,.12,0,.25,.07,.36l2.01,3.63c.06,.1,.14,.18,.24,.23l1.53,.77,3.79,3.8-.91,.91c-.2,.19-.45,.34-.72,.42-.27,.08-.55,.1-.83,.05-.9-.14-1.82-.03-2.67,.31-.85,.34-1.59,.9-2.15,1.62-.56,.72-.92,1.58-1.03,2.48-.12,.9,0,1.83,.36,2.67,.04,.09,.09,.16,.17,.22,.07,.06,.16,.1,.25,.12,.09,.02,.19,.01,.28-.01,.09-.03,.17-.08,.24-.14l2.77-2.78,1.34,.27,.27,1.34-2.77,2.78c-.07,.07-.11,.15-.14,.24-.03,.09-.03,.18-.01,.28,.02,.09,.06,.18,.12,.25,.06,.07,.13,.13,.22,.17,.84,.36,1.76,.48,2.66,.37,.9-.12,1.76-.48,2.48-1.03,.72-.56,1.28-1.3,1.62-2.15,.34-.85,.44-1.77,.31-2.67-.05-.28-.03-.56,.05-.83,.08-.27,.22-.52,.42-.72l.91-.91,.57,.57-.4,.4c-.29,.28-.46,.66-.5,1.06-.04,.4,.07,.8,.31,1.13,.23,.33,.58,.57,.97,.67,.39,.1,.81,.06,1.17-.12l3.36,3.37c.26,.26,.58,.47,.92,.62,.35,.14,.72,.22,1.09,.22s.74-.07,1.09-.22c.35-.14,.66-.35,.92-.62,.26-.26,.47-.58,.62-.93,.14-.35,.22-.72,.22-1.09,0-.37-.07-.75-.22-1.09-.14-.35-.35-.66-.62-.93l-3.37-3.37Zm-12.41-7.59s-.09-.08-.15-.11l-1.45-.73-1.72-3.1,.19-.19,3.09,1.72,.73,1.46c.03,.05,.06,.1,.11,.15l3.86,3.87-.81,.81-3.86-3.87Zm4.56,8c-.32,.33-.56,.73-.7,1.17-.14,.44-.17,.9-.09,1.36,.09,.63,.04,1.27-.16,1.87-.2,.6-.54,1.15-1,1.59-.45,.44-1.01,.77-1.61,.96-.61,.19-1.25,.22-1.87,.11l2.32-2.32c.07-.07,.11-.15,.14-.24,.03-.09,.03-.18,.01-.28l-.41-2.02c-.02-.11-.08-.21-.16-.29-.08-.08-.18-.13-.29-.16l-2.01-.4c-.09-.02-.19-.01-.28,.01-.09,.03-.17,.08-.24,.14l-2.32,2.32c-.11-.62-.07-1.27,.11-1.87,.19-.61,.51-1.16,.96-1.62,.44-.45,.99-.8,1.59-1,.6-.2,1.24-.26,1.87-.16,.45,.07,.92,.04,1.35-.09,.44-.14,.84-.37,1.17-.69l4.24-4.24c.32-.33,.56-.73,.7-1.17,.14-.44,.17-.9,.09-1.36-.09-.63-.04-1.27,.16-1.87,.2-.6,.54-1.15,1-1.59,.45-.44,1.01-.77,1.61-.96,.61-.19,1.25-.22,1.87-.11l-2.32,2.32c-.07,.07-.11,.15-.14,.24s-.03,.18-.01,.28l.4,2.02c.02,.11,.08,.21,.16,.29,.08,.08,.18,.13,.29,.16l2.01,.4c.09,.02,.19,.01,.28-.01,.09-.03,.17-.08,.24-.14l2.32-2.32c.11,.62,.07,1.27-.11,1.87-.19,.61-.51,1.16-.96,1.62-.44,.45-.99,.8-1.59,1-.6,.2-1.24,.26-1.87,.16-.45-.07-.92-.04-1.35,.09-.44,.14-.84,.37-1.17,.69l-4.24,4.24Zm3.33-1.72l.57,.57-.81,.81-.57-.57,.81-.81Zm-.64,4.2c-.11-.11-.17-.25-.17-.4s.06-.3,.17-.4l3.22-3.23c.05-.05,.12-.09,.18-.12,.07-.03,.14-.04,.22-.04,.07,0,.15,.01,.22,.04,.07,.03,.13,.07,.18,.12,.05,.05,.09,.12,.12,.19,.03,.07,.04,.14,.04,.22,0,.07-.01,.15-.04,.22-.03,.07-.07,.13-.12,.19l-3.22,3.23c-.11,.1-.25,.16-.4,.16-.15,0-.3-.06-.4-.16h0Zm7.72,3.7c-.32,.32-.76,.5-1.21,.5s-.89-.18-1.21-.5l-3.29-3.3,2.42-2.42,3.29,3.3c.16,.16,.28,.35,.37,.56s.13,.43,.13,.65-.04,.45-.13,.65-.21,.4-.37,.56Z"/>
  <path class="cls-1" d="M33.7,24.25c-.15-.26-.35-.49-.58-.67-.24-.18-.51-.32-.8-.39-.29-.08-.59-.1-.89-.06-.3,.04-.58,.14-.84,.29l-5.56,3.21c-.3-.46-.76-.79-1.29-.93l-8.5-2.28c-.65-.18-1.34-.18-2-.02l-2.99,.75v-.98c0-.15-.06-.3-.17-.4-.11-.11-.25-.17-.4-.17H5.13c-.15,0-.3,.06-.4,.17-.11,.11-.17,.25-.17,.4v.57H.57c-.15,0-.3,.06-.4,.17-.11,.11-.17,.25-.17,.4v7.98c0,.15,.06,.3,.17,.4,.11,.11,.25,.17,.4,.17h3.99v.57c0,.15,.06,.3,.17,.4,.11,.11,.25,.17,.4,.17h4.56c.15,0,.3-.06,.4-.17,.11-.11,.17-.25,.17-.4v-.79l.73,.37c.55,.28,1.16,.42,1.78,.42h8.53c.7,0,1.39-.18,1.99-.53l9.57-5.53c.52-.3,.9-.8,1.06-1.39,.16-.58,.07-1.21-.23-1.73ZM1.14,31.72v-6.84h3.42v6.84H1.14Zm7.98,1.14h-3.42v-9.13h3.42v9.13Zm23.18-6.48l-9.57,5.53c-.43,.25-.92,.38-1.42,.38H12.77c-.44,0-.88-.1-1.27-.3l-1.24-.62v-6.05l3.27-.82c.47-.12,.96-.11,1.43,.01l8.5,2.28c.15,.04,.29,.1,.41,.19,.12,.09,.22,.2,.3,.34s.13,.28,.15,.43c.02,.15,.01,.3-.03,.45-.04,.15-.11,.28-.2,.4s-.21,.22-.34,.29c-.13,.07-.28,.12-.43,.14-.15,.02-.3,0-.45-.04l-6.79-1.82c-.15-.04-.3-.02-.43,.06-.13,.08-.23,.2-.26,.35-.04,.15-.02,.3,.06,.43,.08,.13,.2,.23,.34,.27l6.79,1.83c.19,.05,.39,.08,.59,.08,.31,0,.63-.06,.91-.19,.29-.13,.55-.31,.76-.54,.21-.23,.37-.51,.48-.8,.1-.3,.14-.61,.11-.93l5.74-3.32c.26-.14,.57-.18,.86-.1,.29,.08,.54,.26,.69,.52,.15,.26,.19,.57,.11,.86-.08,.29-.27,.54-.53,.69Z"/>
</svg>
